packages/ffe-icons/icons/open/500/md/currency_ruble.svg

<svg xmlns="http://www.w3.org/2000/svg" height="24" viewBox="0 -960 960 960" width="24"><path d="M274.5-157.37v-73.543H240q-19.152 0-32.326-13.174T194.5-276.413q0-19.152 13.174-32.326T240-321.913h34.5v-75.217H240q-19.152 0-32.326-13.174T194.5-442.63q0-19.153 13.174-32.327T240-488.131h34.5V-802.63q0-19.153 13.174-32.327T320-848.131h220q94.152 0 159.826 65.674Q765.5-716.783 765.5-622.63q0 94.152-65.674 159.826Q634.152-397.13 540-397.13H365.5v75.217H480q19.152 0 32.326 13.174t13.174 32.326q0 19.152-13.174 32.326T480-230.913H365.5v73.543q0 19.153-13.174 32.327T320-111.869q-19.152 0-32.326-13.174T274.5-157.37Zm91-330.761H540q55.848 0 95.174-39.326Q674.5-566.783 674.5-622.63q0-55.848-39.326-95.174Q595.848-757.13 540-757.13H365.5v268.999Z"/></svg>

<svg xmlns="http://www.w3.org/2000/svg" height="24" viewBox="0 -960 960 960" width="24"><path d="M274.5-157.37v-73.54H240q-19.15 0-32.33-13.18-13.17-13.17-13.17-32.32 0-19.16 13.17-32.33 13.18-13.17 32.33-13.17h34.5v-75.22H240q-19.15 0-32.33-13.17-13.17-13.18-13.17-32.33t13.17-32.33q13.18-13.17 32.33-13.17h34.5v-314.5q0-19.15 13.17-32.33 13.18-13.17 32.33-13.17h220q94.15 0 159.83 65.67 65.67 65.68 65.67 159.83T699.83-462.8Q634.15-397.13 540-397.13H365.5v75.22H480q19.15 0 32.33 13.17 13.17 13.17 13.17 32.33 0 19.15-13.17 32.32-13.18 13.18-32.33 13.18H365.5v73.54q0 19.15-13.17 32.33-13.18 13.17-32.33 13.17t-32.33-13.17q-13.17-13.18-13.17-32.33Zm91-330.76H540q55.85 0 95.17-39.33 39.33-39.32 39.33-95.17t-39.33-95.17q-39.32-39.33-95.17-39.33H365.5v269Z"/></svg>
